X: 97
T: Green Mountain Petronella
B: NEFR #97
Z: Mary Lou Knack?
M: C|
L: 1/8
R: reel
K: G
GE |\
"G"D2 G2 "C"GF GE | "G"D2 B2 B3 d | "Am"c2 A2 AB cd | "C"e2 d2 d^c d4 |
"G"D2 G2 "C"GF GE | "G"D2 B2 B3 d | "Am"c2 A2 "D7"AG Ac | "G"A2 G2 G2 :|
|: Bd |\
"G"g2 g2  "D"f2 f2 | "C"ef ge "G"d2 d2 | "C"ed ef "G"gf gd | "D"B2 A2 A2 Bd |
"Em"g2 g2 "D"fg f2 | "C"ef e2 "G"d2 Bd | "C"ed ef "G"gf gd | "D7"B2 A2 "G"G2 :|
